!!!!SEGMENT: Gom2002-Angelus_Domini.krn
!!!id: Gom2002
!!!AGN: Motet
!!!SCT: Schmidt-Görg (1975)
!!!voices: 4
!!!COM: Nicolas Gombert
!!!OTL: Angelus Domini
**kern	**kern	**kern	**kern
*part4	*part3	*part2	*part1
*staff4	*staff3	*staff2	*staff1
*I"Bassus	*I"Tenor	*I"Altus	*I"Superius
*I'B	*I'T	*I'A	*I'S
*clefF4	*clefGv2	*clefG2	*clefG2
*k[b-]	*k[b-]	*k[b-]	*k[b-]
*d:	*d:	*d:	*d:
*M2/1	*M2/1	*M2/1	*M2/1
*met(C|)	*met(C|)	*met(C|)	*met(C|)
!!section: Prima pars: Angelus Domini
!!!OMD: Prima pars: Angelus Domini
=1	=1	=1	=1
0r	0r	0r	1.cc
.	.	.	2cc
=2	=2	=2	=2
0r	0r	0r	1cc
.	.	.	1dd
=3	=3	=3	=3
0r	0r	1.f	1cc
.	.	.	1a
.	.	2f	.
=4	=4	=4	=4
0r	0r	1f	2r
.	.	.	2cc
.	.	1g	2cc
.	.	.	2b-y
=5	=5	=5	=5
0r	0r	1f	1a
.	.	1d	2r
.	.	.	2b-y
=6	=6	=6	=6
0r	0r	2r	2b-y
.	.	2f	2a
.	.	2f	2.g
.	.	2e	.
.	.	.	4a
=7	=7	=7	=7
0r	0r	2.d	4b-y
.	.	.	4cc
.	.	.	1dd
.	.	4e	.
.	.	4f	.
.	.	4g	.
.	.	[2a	[2cc
=8	=8	=8	=8
0r	1.c	4a]	4cc]
.	.	4g	4dd
.	.	2.g	2.ee
.	.	4f	4dd
.	2c	4e	4cc
.	.	4d	4b-y
=9	=9	=9	=9
0r	1c	4e	4a
.	.	4c	4b-y
.	.	1g	4cc
.	.	.	4a
.	1d	.	4b-y
.	.	.	4a
.	.	[2f	4g
.	.	.	4f
=10	=10	=10	=10
1r	1c	2f]	1g
.	.	2e	.
[1F	[1A	[1f	[1a
=11	=11	=11	=11
2F]	1A]	0f]	0a]
2F	.	.	.
1F	2r	.	.
.	2c	.	.
=12	=12	=12	=12
1G	2c	2r	1r
.	2B-y	2d	.
1F	1A	2d	2r
.	.	2c	2cc
=13	=13	=13	=13
1D	2r	1d	2cc
.	2B-y	.	2b-y
2r	2B-y	2.c	1cc
2F	2A	.	.
.	.	4d	.
=14	=14	=14	=14
2F	2.G	4e	4g
.	.	4f	4a
2E	.	2.g	4b-y
.	4A	.	4cc
2.D	4B-y	.	2.dd
.	4c	4f	.
.	[2d	[2f	.
4E	.	.	4cc
=15	=15	=15	=15
4F	4d]	2f]	2.a
4G	4c	.	.
1A	4A	4e	.
.	4B-y	4d	4g
.	4c	2c	4f
.	4B-y	.	4e
2D	4A	2B-y	4f
.	4G	.	4d
=16	=16	=16	=16
2C	2A	2c	4e
.	.	.	4c
2BB-y	2B-y	2d	1f
1C	1G	1c	.
.	.	.	2e
=17	=17	=17	=17
0F	0F	1A	0f
.	.	2r	.
.	.	2f	.
=18	=18	=18	=18
1F	0r	1.f	2r
.	.	.	2f
1r	.	.	[1cc
.	.	2e	.
=19	=19	=19	=19
0r	0r	2f	2cc]
.	.	2d	2b-y
.	.	2c	2cc
.	.	[2f	2a
=20	=20	=20	=20
0r	0r	2f]	2g
.	.	2e	2g
.	.	2d	2a
.	.	2d	2b-y
=21	=21	=21	=21
0r	2r	4A	1cc
.	.	4B-y	.
.	2F	4c	.
.	.	4d	.
.	[1c	4e	2g
.	.	4f	.
.	.	[2g	2cc
=22	=22	=22	=22
0r	2c]	4g]	2.dd
.	.	4f	.
.	2B-y	4f	.
.	.	8eL	8ccL
.	.	8dJ	8b-yJ
.	2c	2e	4a
.	.	.	4g
.	2A	2f	[2cc
=23	=23	=23	=23
1r	2G	1d	2cc]
.	2G	.	2bni
2r	2.A	1c	1cc
2F	.	.	.
.	4B-y	.	.
=24	=24	=24	=24
1.F	1c	0r	2r
.	.	.	2f
.	1G	.	[1cc
2E	.	.	.
=25	=25	=25	=25
2F	2r	0r	2cc]
2D	2d	.	2b-y
2C	2e	.	2cc
[2F	[2d	.	2a
=26	=26	=26	=26
2F]	2d]	2r	1g
2E	1c	2c	.
2D	.	2d	1r
2D	2Bni	2f	.
=27	=27	=27	=27
1C	1c	2f	2r
.	.	2e	2g
1r	1r	1f	2a
.	.	.	2cc
=28	=28	=28	=28
0r	2r	1d	2cc
.	2G	.	2b-y
.	2A	1c	2cc
.	2c	.	2a
=29	=29	=29	=29
1r	2c	2r	0g
.	2B-y	2d	.
2r	1c	2e	.
2C	.	2g	.
=30	=30	=30	=30
2D	1A	2g	1r
2F	.	2f	.
2F	1G	2g	2r
2E	.	2g	2g
=31	=31	=31	=31
1F	2r	0f	2a
.	2c	.	2cc
1D	2d	.	2cc
.	2f	.	2b-y
=32	=32	=32	=32
1C	2f	0r	1cc
.	2e	.	.
2r	2f	.	2a
2G	2d	.	[2g
=33	=33	=33	=33
2A	1c	1r	4g]
.	.	.	4f
2c	.	.	2e
2c	1G	2r	1d
2Bni	.	2g	.
=34	=34	=34	=34
1c	2r	2g	2c
.	2c	1e	2g
1A	2c	.	2a
.	2c	2f	[2cc
=35	=35	=35	=35
1G	1d	1g	2cc]
.	.	.	2bni
[1C	2c	1r	2cc
.	[2A	.	2cc
=36	=36	=36	=36
1C]	2A]	2r	2cc
.	2G	1e	2cc
1r	2B-y	.	1dd
.	2B-y	2d	.
=37	=37	=37	=37
0r	2.A	2f	2cc
.	.	2f	1a
.	4B-y	.	.
.	2.c	2e-X	.
.	.	[2e-i	2g
.	8B-yL	.	.
.	8AJ	.	.
=38	=38	=38	=38
1r	4G	2e-]	2b-y
.	4F	.	.
.	2G	2d	2b-y
2r	1F	2.f	1a
2F	.	.	.
.	.	8eLny	.
.	.	8dJ	.
=39	=39	=39	=39
2F	2r	2c	2r
2F	2A	1f	1a
1G	1B-y	.	.
.	.	2e	2g
=40	=40	=40	=40
2F	0A	1f	2a
1D	.	.	2b-y
.	.	2.e	2.cc
2C	.	.	.
.	.	4d	8b-yL
.	.	.	8aJ
=41	=41	=41	=41
2E	2r	2B-y	1g
2E	2G	2c	.
1D	2.A	2d	1f
.	.	2d	.
.	4B-y	.	.
=42	=42	=42	=42
2r	1c	2e	2r
2F	.	2f	2a
2G	2r	1e	2b-y
2A	2c	.	2cc
=43	=43	=43	=43
1.B-y	4G	2.d	1.dd
.	4A	.	.
.	4B-y	.	.
.	4c	4e	.
.	4d	4f	.
.	4c	4g	.
2A	[2c	[2f	2a
=44	=44	=44	=44
1G	2c]	2f]	1b-y
.	2B-y	2e	.
[1F	1c	[1f	[1a
=45	=45	=45	=45
0F_	2r	1f]	0a_
.	1c	.	.
.	.	1r	.
.	2c	.	.
=46	=46	=46	=46
1F]	2d	2r	1a]
.	2c	1f	.
1r	1A	.	1r
.	.	2f	.
=47	=47	=47	=47
1r	1B-y	2g	0r
.	.	1f	.
2r	[1A	.	.
[2F	.	4e	.
.	.	4d	.
=48	=48	=48	=48
2F]	1A]	2.c	1r
2F	.	.	.
.	.	4d	.
2G	2r	2e	2r
2F	2A	[2f	[2f
=49	=49	=49	=49
1D	2B-y	4f]	2f]
.	.	4e	.
.	2A	1d	2f
1E	2.G	.	1g
.	.	2c#i	.
.	4A	.	.
=50	=50	=50	=50
0D	2B-y	1d	2.f
.	1A	.	.
.	.	.	4g
.	.	2r	2a
.	[2d	[2f	[2b-y
=51	=51	=51	=51
1r	4d]	4f]	4b-]
.	4c	4e	4a
.	4B-y	4d	1a
.	4A	4c	.
2r	1B-y	2d	.
[2G	.	2e	2g
=52	=52	=52	=52
2G]	1A	1f	1a
2F	.	.	.
2E	2r	2r	1r
2D	2F	[2f	.
=53	=53	=53	=53
1C	2G	2f]	2r
.	2A	2e	1a
1BB-y	1B-y	2d	.
.	.	2d	2g
=54	=54	=54	=54
1F	2A	2c	2f
.	1d	2B-y	2d
1r	.	1A	1e
.	2c	.	.
=55	=55	=55	=55
2r	2B-y	2r	1f
1F	2A	2c	.
.	1G	2.d	1g
2E	.	.	.
.	.	4e	.
=56	=56	=56	=56
2D	2r	2f	1r
2C	2c	2e	.
1BB-y	2.d	1d	2r
.	.	.	[2dd
.	4e	.	.
=57	=57	=57	=57
2r	2f	1A	2dd]
2C	2e	.	2cc
2D	2d	2r	2b-y
2E	[2c	2c	2g
=58	=58	=58	=58
2F	4c]	2d	2a
.	4B-y	.	.
2E	4A	2e	2.g
.	4G	.	.
2D	2A	2f	.
.	.	.	4f
2BB-y	2B-y	2d	[2f
=59	=59	=59	=59
1C	1G	1c	2f]
.	.	.	2e
[1F	2F	[1A	1f
.	2c	.	.
=60	=60	=60	=60
1F]	2.d	0A]	2r
.	.	.	1dd
.	4e	.	.
2r	2f	.	.
2C	2e	.	2cc
=61	=61	=61	=61
2D	2d	2r	2b-y
2E	2.c	2c	2g
2F	.	2d	2a
.	4B-y	.	.
2E	4A	2e	[2g
.	4G	.	.
=62	=62	=62	=62
2D	2A	2f	4g]
.	.	.	4f
2BB-y	2B-y	2d	1f
1C	1G	1c	.
.	.	.	2e
=	=	=	=
00F	00F	00c	00f
=||	=||	=||	=||
*M2/1	*M2/1	*M2/1	*M2/1
*met(C|)	*met(C|)	*met(C|)	*met(C|)
!!section: Secunda pars: Et invenietis
!!!OMD: Secunda pars: Et invenietis
0F	0c	0f	0a
=63	=63	=63	=63
1.F	1.c	1.f	1.a
2F	2c	2f	2a
=64	=64	=64	=64
1F	1c	1f	1a
1D	1d	1f	1a
=65	=65	=65	=65
0A	0c	0e	0a
=66	=66	=66	=66
0F	2.c	0f	0a
.	4B-y	.	.
.	4A	.	.
.	4G	.	.
.	[2c	.	.
=67	=67	=67	=67
0G	2c]	1.d	0b-y
.	4B-y	.	.
.	4A	.	.
.	1B-y	.	.
.	.	2e	.
=68	=68	=68	=68
[0F	0c	[0f	2a
.	.	.	2cc
.	.	.	2cc
.	.	.	2cc
=69	=69	=69	=69
0F]	2r	0f_	2dd
.	2c	.	2cc
.	2c	.	1a
.	2c	.	.
=70	=70	=70	=70
2r	2d	0f]	2r
2F	2c	.	2a
2F	1A	.	2a
2F	.	.	2a
=71	=71	=71	=71
2G	0r	2r	2b-y
2F	.	2f	1a
1D	.	2f	.
.	.	2f	4g
.	.	.	4f
=72	=72	=72	=72
0r	0r	2g	2e
.	.	2f	4d
.	.	.	4e
.	.	4d	4f
.	.	4e	4g
.	.	4f	[2a
.	.	4d	.
=73	=73	=73	=73
0r	1c	2e	2a]
.	.	1f	4g
.	.	.	4f
.	2c	.	2.g
.	2c	2e	.
.	.	.	4a
=74	=74	=74	=74
2r	2d	1f	2b-y
2F	2c	.	2a
2F	4A	2r	1a
.	4B-y	.	.
2F	4c	2f	.
.	4A	.	.
=75	=75	=75	=75
2G	2B-y	2e	2r
2F	2A	2.c	2.a
1D	1F	.	.
.	.	4A	4g
.	.	2B-y	[2f
=76	=76	=76	=76
1C	1G	1c	2f]
.	.	.	2e
1F	1F	[1A	[1f
=77	=77	=77	=77
1r	2r	0A]	1f]
.	1c	.	.
1F	.	.	1r
.	2d	.	.
=78	=78	=78	=78
2G	2e	0r	0r
1A	2c	.	.
.	1f	.	.
2F	.	.	.
=79	=79	=79	=79
2G	2e	0r	0r
2B-y	2d	.	.
2A	1e	.	.
[2c	.	.	.
=80	=80	=80	=80
2c]	2.d	0r	0r
2B-y	.	.	.
.	4e	.	.
2A	2f	.	.
[2G	2e	.	.
=81	=81	=81	=81
4G]	2d	1r	1r
4F	.	.	.
4E	1c	.	.
4D	.	.	.
2E	.	2r	1cc
[2F	4B-y	[2f	.
.	4A	.	.
=82	=82	=82	=82
2F]	2G	2f]	2dd
2E	1c	2g	2ee
2F	.	2a	2cc
2D	2Bni	2f	[2ff
=83	=83	=83	=83
1C	1c	2.g	2ff]
.	.	.	2ee
.	.	4g	.
1r	1r	2f	2dd
.	.	2e	[2cc
=84	=84	=84	=84
1r	0r	4d	2cc]
.	.	4e	.
.	.	4f	4b-y
.	.	4d	4a
2r	.	2e	2g
[2F	.	2f	[2cc
=85	=85	=85	=85
2F]	0r	1d	2cc]
2G	.	.	2bni
2A	.	2r	1cc
2F	.	[2f	.
=86	=86	=86	=86
2.B-y	1r	2f]	0r
.	.	2g	.
4B-y	.	.	.
2A	2c	2a	.
2B-y	[2d	2f	.
=87	=87	=87	=87
1G	2d]	1g	0r
.	2e	.	.
1F	2c	[1a	.
.	[2f	.	.
=88	=88	=88	=88
2r	2f]	2a]	1r
2C	2e	2g	.
2D	2d	2f	2r
2E	[2c	2e	2cc
=89	=89	=89	=89
2F	2c]	1d	1dd
2G	2B-y	.	.
2C	2c	1c	2ee
[2c	2A	.	2cc
=90	=90	=90	=90
2c]	1G	1r	2.dd
2B-y	.	.	.
.	.	.	4cc
2c	1F	2r	4a
.	.	.	4b-y
2A	.	2c	[2cc
=91	=91	=91	=91
1G	0r	2d	2cc]
.	.	2e	2b-y
[1F	.	[1f	[1a
=92	=92	=92	=92
0F_	2r	1f]	0a_
.	1c	.	.
.	.	1r	.
.	2c	.	.
=93	=93	=93	=93
1F]	2d	2r	1a]
.	2c	1f	.
1r	1A	.	1r
.	.	2f	.
=94	=94	=94	=94
1r	1B-y	2g	0r
.	.	1f	.
2r	[1A	.	.
[2F	.	4e	.
.	.	4d	.
=95	=95	=95	=95
2F]	1A]	2.c	1r
2F	.	.	.
.	.	4d	.
2G	2r	2e	2r
2F	2A	[2f	[2f
=96	=96	=96	=96
1D	2B-y	4f]	2f]
.	.	4e	.
.	2A	1d	2f
1E	2.G	.	1g
.	.	2c#i	.
.	4A	.	.
=97	=97	=97	=97
0D	2B-y	1d	2.f
.	1A	.	.
.	.	.	4g
.	.	2r	2a
.	[2d	[2f	[2b-y
=98	=98	=98	=98
1r	4d]	4f]	4b-]
.	4c	4e	4a
.	4B-y	4d	1a
.	4A	4c	.
2r	1B-y	2d	.
[2G	.	2e	2g
=99	=99	=99	=99
2G]	1A	1f	1a
2F	.	.	.
2E	2r	2r	1r
2D	2F	[2f	.
=100	=100	=100	=100
1C	2G	2f]	2r
.	2A	2e	1a
1BB-y	1B-y	2d	.
.	.	2d	2g
=101	=101	=101	=101
1F	2A	2c	2f
.	1d	2B-y	2d
1r	.	1A	1e
.	2c	.	.
=102	=102	=102	=102
2r	2B-y	2r	1f
1F	2A	2c	.
.	1G	2d	1g
2E	.	2e	.
=103	=103	=103	=103
2D	2r	2f	1r
2C	2c	2e	.
1BB-y	2.d	1d	2r
.	.	.	[2dd
.	4e	.	.
=104	=104	=104	=104
2r	2f	1A	2dd]
2C	2e	.	2cc
2D	2d	2r	2b-y
2E	[2c	2c	2g
=105	=105	=105	=105
2F	4c]	2d	2a
.	4B-y	.	.
2E	4A	2e	2.g
.	4G	.	.
2D	2A	2f	.
.	.	.	4f
2BB-y	2B-y	2d	[2f
=106	=106	=106	=106
1C	1G	1c	2f]
.	.	.	2e
[1F	2F	[1A	1f
.	2c	.	.
=107	=107	=107	=107
1F]	2.d	0A]	2r
.	.	.	1dd
.	4e	.	.
2r	2f	.	.
2C	2e	.	2cc
=108	=108	=108	=108
2D	2d	2r	2b-y
2E	2.c	2c	2g
2F	.	2d	2a
.	4B-y	.	.
2E	4A	2e	[2g
.	4G	.	.
=109	=109	=109	=109
2D	2A	2f	4g]
.	.	.	4f
2BB-y	2B-y	2d	1f
1C	1G	1c	.
.	.	.	2e
=110	=110	=110	=110
00Fl	00Fl	00Al	00fl
==	==	==	==
*-	*-	*-	*-
!!!system-decoration: [*]
!!!RDF**kern: i = editorial accidental
!!!RDF**kern: l = terminal long
!!!ENC: Benjamin Ory
!!!END: 2021/1/20
!!!EED: Benjamin Ory
!!!EEV: 2021/04/27
!!!YEC: Copyright 2018 Benjamin Ory, All Rights Reserved
!!!ONB: Translated from MusicXML on 2021/04/27
